X:25
T:Drogheadia militia slow march. JMP.025
M:C
L:1/8
Q:1/4=110
C:â€26â€³
S:John Miller MS. Perth, 1799.(for the fife)
R:.March
O:Scotland
A:Perth
N:1 â€“ the following 6 slurs are all marked with a redundant â€˜2â€™
N:2 â€“ bar line shown here
N:3 â€“ this triplet not so marked in MS
N:4 â€“ no end bar lines shown, da cappo written at end
N:
N:The tune is written on four lines. â€˜No 27â€² is written above the third
N:line, but the last bar of the second line continues onto the third
N:line. The following tune is also numbered 27. This is all one tune.
H:1799
Z:vmp.C. Graebe
K:G major
(3(BAG) | d2 d>d d2 (3(BAG) | d2 d>d d2 (3(BAG) |\
e2 e>d c>de>d | c2 A>A A2 dc |!
â€œ1â€ (cB) dB (BA) dA | (AG)(BG) (GF) ( ED)|\
E>FG>A d>cB>A | G2 G>G G2 :|!
|: â€œ3â€(3def | g2 g>g g>dB>d |\
G2 G>G G>B Ac | B>GB>d â€œ2â€ e>dB>c | d2 d>d d2 â€œ3â€ (3def |!
g2 g>g g>dB>d | G2 G>G G>BAc | BGBd edBc |\
d2 d>d2 â€œ4â€d2 â€ da cappoâ€(3(BAG)|]

